X:1
T:Majesty
T:Majesty
T:Jack Hayford, arranged by Eugene Thomas, 1980
T:Jack Hayford, 1980
T:© 1980 Rocksmith Music, c/o Trust Music Mangement Courtesy of the Cyber Hymnal™
T:© 1980 Rocksmith Music, c/o Trust Music Mangement Courtesy of the Cyber Hymnal™
C:Jack Hayford, arranged by Eugene Thomas, 1980
Z:© 1980 Rocksmith Music, c/o Trust Music Mangement
Z:Courtesy of the Cyber Hymnal™
%%score ( 1 2 ) ( 3 4 )
L:1/8
Q:1/4=115
M:4/4
K:Bb
V:1 treble 
V:2 treble 
V:3 bass 
V:4 bass 
V:1
 [DB]3 [DF] [DF]4- | [DF]4 (3[DB]2 [EB]2 [FB]2 | [GB]3 [EG] G4- | [EG]4 [GB]2 [Ac]2 | %4
w: Maj- es- ty,|* wor- ship his|maj- es- ty;|* un- to|
 [Fd]2 [Fd]4 FF | [GB]2 [FB]2 (3[=EB]2 [EG]2 [EB]2 | ([Ec]8- | z2 [A,EF]2 [B,EG]2 [CEA]2) | %8
w: Je- sus be all|glo- ry, hon- or, and|praise.||
 [DB]3 [DF] [DF]4- | [DF]4 (3[DB]2 [EB]2 [FB]2 | [GB]3 [EG] G4- | [EG]4 (3[Ge]2 [Fd]2 [Gc]2 | %12
w: * Maj- es-|* ty, king- dom|au- thor- i-|* ty, flow from|
 [Fd]4 (3[Fd]2 [Ec]2 [DB]2 x11/8 | [Ec]4 (3[Ec]2 [DB]2 [CA]2 | B8- | [DB]4 [DF]2 [DB]2 | %16
w: his throne un- to|his own, his an-|them|* raise. So|
 [Ec]4 (3E2 [EG]2 [EB]2 | [Ec]3 [Ec] [EB]2 [Ec]2 | [Fd]4 [DB]4- | [DB]4 [DF]2 [DB]2 | %20
w: ex- alt, lift up|on high the name|of Je-|* sus. Mag-|
 [Ec]4 (3E2 [EG]2 [EB]2 | [Ec]3 [Ec] (3[Ec]2 [EB]2 [Ec]2 | d8- | [Bd]4 [B,EG]2 [CEA]2 | %24
w: ni- fy, come glo-|ri- fy Christ Je- sus,|the||
 [DB]3 [DF] [DF]4- | [DF]4 (3[DB]2 [EB]2 [FB]2 | [GB]3 [EG] G4- | [EG]4 (3[Ge]2 [Fd]2 [Gc]2 | %28
w: King. Maj- es-|* ty, wor- ship|his maj- es-|* ty, Je- sus|
 [Fd]4 (3[Fd]2 [Ec]2 [DB]2 x11/8 | [Ec]4 (3[Ec]2 [DB]2 [CA]2 | B8- | [DB]8 |] %32
w: who died, now glo-|ri- fied, King of|all||
V:2
 x8 | x8 | x4 E2- F2 | x8 | x6 FF | x8 | x8 | [Ec]8 | x8 | x8 | x4 E2 F2 | x8 | x75/8 | x8 | %14
 D4- E4 | x8 | x4 E2 x2 | x8 | x8 | x8 | x4 E2 x2 | x8 | ^F4 A4 | x8 | x8 | x8 | x4 E2 F2 | x8 | %28
 x75/8 | x8 | D4- E4 | x8 |] %32
V:3
 [B,,B,]3 [B,,B,] [B,,B,]4- | [B,,B,]4 (3[B,,B,]2 [C,B,]2 [D,B,]2 | [E,B,]3 [E,B,] B,4- | %3
 [C,B,]4 [F,E]2 [F,E]2 | [B,D]2 [B,D]4 [A,D][A,D] | [G,D]2 [G,D]2 (3[C,C]2 [C,C]2 [C,C]2 | %6
 ([F,-B,]8 | z2 F,,2 F,,2 F,,2) | [B,,B,]3 [B,,B,] [B,,B,]4- | %9
 [B,,B,]4 (3[B,,B,]2 [C,B,]2 [D,B,]2 | [E,B,]3 [E,B,] B,4- | [C,B,]4 (3[C,B,]2 [D,B,]2 [E,B,]2 | %12
 [F,B,]4 (3:2:1[F,B,]2 F,2 F,2 x/24 | [C,C]4 (3[F,A,]2 F,2 [F,,F,]2 | F,4- G,4 | %15
 [B,,F,]4 [B,,B,]2 [B,,B,]2 | [F,A,]4 (3[C,B,]2 [C,B,]2 [C,G,]2 | [F,A,]3 [F,A,] [F,G,]2 [F,A,]2 | %18
 [B,,B,]4 [B,,F,]4- | [B,,F,]4 [B,,B,]2 [B,,B,]2 | [F,A,]4 (3[C,B,]2 [C,B,]2 [C,G,]2 | %21
 [F,A,]3 [F,A,] (3[F,G,]2 [F,A,]2 [F,A,]2 | [D,A,]4 ([^F,D]4 | [G,D]4 C,2 F,,2) | %24
 [B,,B,]3 [B,,B,] [B,,B,]4- | [B,,B,]4 (3[B,,B,]2 [C,B,]2 [D,B,]2 | [E,B,]3 [E,B,] B,4- | %27
 [C,B,]4 (3[C,B,]2 [D,B,]2 [E,B,]2 | [F,B,]4 (3:2:1[F,B,]2 F,2 F,2 x/24 | %29
 [C,B,]4 (3[F,A,]2 F,2 [F,,F,]2 | F,4- G,4 | [B,,F,]8 |] %32
V:4
 x8 | x8 | x4 E,2 D,2 | x8 | x8 | x8 | x8 | [F,A,]8 | x8 | x8 | x4 E,2 D,2 | x8 | %12
 x43/8 (3:2:2F,2 F,2 x11/8 | x16/3 F,2 x2/3 | B,,8- | x8 | x8 | x8 | x8 | x8 | x8 | x8 | x8 | x8 | %24
 x8 | x8 | x4 E,2 D,2 | x8 | x43/8 (3:2:2F,2 F,2 x11/8 | x16/3 F,2 x2/3 | B,,8- | x8 |] %32

